img/svg/logo.svg

<svg width="32" height="32" viewBox="0 0 32 32" fill="none" xmlns="http://www.w3.org/2000/svg">
<path d="M21.6471 0C27.3648 0 32 4.63517 32 10.3529C32 16.0707 27.3648 20.7059 21.6471 20.7059C21.1273 20.7059 20.7059 21.1273 20.7059 21.6471C20.7059 22.1091 21.0388 22.4934 21.4779 22.5731L21.6471 22.5882H32V32H21.6471C15.9293 32 11.2941 27.3648 11.2941 21.6471C11.2941 15.9293 15.9293 11.2941 21.6471 11.2941C22.1669 11.2941 22.5882 10.8727 22.5882 10.3529C22.5882 9.8909 22.2553 9.50662 21.8162 9.42693L21.6471 9.41177H10.3529C9.8909 9.41177 9.50662 9.74471 9.42693 10.1838L9.41177 10.3529V32H0V10.3529C0 4.77463 4.41182 0.22675 9.93655 0.00822062L10.3529 0H21.6471Z" fill="white"/>
</svg>

<svg width="32" height="32" fill="none" xmlns="http://www.w3.org/2000/svg"><path d="M21.647 0C27.365 0 32 4.635 32 10.353s-4.635 10.353-10.353 10.353a.941.941 0 00-.17 1.867l.17.015H32V32H21.647c-5.718 0-10.353-4.635-10.353-10.353s4.635-10.353 10.353-10.353a.941.941 0 00.17-1.867l-.17-.015H10.353a.941.941 0 00-.926.772l-.015.169V32H0V10.353C0 4.775 4.412.227 9.937.008L10.353 0h11.294z" fill="#fff"/></svg>
